src/4-icons/hand-select.svg

<svg width="260" height="260" viewBox="0 0 260 260" fill="none" xmlns="http://www.w3.org/2000/svg">
<path d="M208.26 132.548C208.182 130.183 207.662 127.947 206.7 125.97C205.14 122.72 202.514 120.328 199.628 118.872C196.743 117.39 193.596 116.767 190.45 116.74C187.486 116.74 184.522 117.365 181.766 118.612C181.506 117.52 181.143 116.454 180.648 115.492C179.063 112.19 176.41 109.772 173.498 108.264C170.586 106.756 167.362 106.054 164.19 106.054C161.304 106.054 158.392 106.678 155.688 107.899C155.428 106.911 155.09 105.924 154.648 105.039C153.036 101.737 150.384 99.2937 147.473 97.7855C144.534 96.2519 141.311 95.5501 138.086 95.5501C135.461 95.5501 132.783 96.0447 130.286 97.0583C130.286 73.6319 130.286 43.2637 130.286 37.0501C130.286 34.3719 129.714 31.8501 128.648 29.6665C127.036 26.3647 124.384 23.9211 121.472 22.3865C118.533 20.8519 115.31 20.1511 112.085 20.1511C107.822 20.1511 103.453 21.3993 99.8906 24.2075C98.1224 25.6121 96.5888 27.4575 95.5224 29.6421C94.456 31.8267 93.8842 34.3739 93.8842 37.0267C93.8842 42.7467 93.8842 86.9985 93.8842 122.827H74.9042L51.7124 175.009L85.5388 239.852H88.6842C88.6842 239.852 93.5724 239.852 101.034 239.852C123.446 239.852 169.284 239.852 177.084 239.852C180.126 239.852 182.908 239.462 185.431 238.527C187.329 237.825 189.071 236.81 190.527 235.51C192.737 233.56 194.271 231.116 195.363 228.542C196.455 225.942 197.183 223.134 197.807 220.067C198.665 215.777 199.705 209.251 200.823 201.555C202.487 190.037 204.282 175.945 205.712 163.413C206.413 157.148 207.037 151.271 207.506 146.28C207.948 141.288 208.261 137.206 208.312 134.371C208.286 133.903 208.286 132.837 208.26 132.551V132.548ZM197.885 133.405V134.134C197.807 137.279 197.34 143.26 196.611 150.487C195.519 161.381 193.854 175.266 192.165 187.953C190.475 200.614 188.76 212.133 187.563 218.034C187.095 220.426 186.575 222.403 185.978 223.936C185.536 225.08 185.068 225.964 184.6 226.614C183.872 227.603 183.222 228.123 182.182 228.616C181.116 229.084 179.503 229.448 177.085 229.448C167.933 229.448 106.495 229.448 91.8316 229.448L63.257 174.666L81.6652 133.248H93.8852C93.8852 153.918 93.8852 169.648 93.8852 169.648V174.848H104.285V169.648C104.285 169.648 104.285 46.8763 104.285 37.0481C104.285 35.8263 104.52 34.9417 104.883 34.2135C105.403 33.1217 106.262 32.2889 107.535 31.6135C108.783 30.9635 110.421 30.5481 112.085 30.5735C114.321 30.5735 116.453 31.2753 117.779 32.3681C118.454 32.9135 118.949 33.5127 119.287 34.2399C119.652 34.9681 119.885 35.8517 119.885 37.0745C119.885 44.7963 119.885 89.8291 119.885 112.474C119.885 121.523 119.885 119.468 119.885 125.474H130.285C130.285 125.474 130.285 120.301 130.285 112.474C130.285 111.253 130.52 110.369 130.883 109.641C131.403 108.549 132.262 107.717 133.535 107.041C134.783 106.391 136.421 105.976 138.085 106.001C140.322 106.001 142.453 106.703 143.78 107.794C144.456 108.34 144.95 108.938 145.288 109.666C145.652 110.394 145.886 111.278 145.886 112.5C145.886 116.322 145.886 119.883 145.886 122.9V131.532H156.286C156.286 131.532 156.286 128.073 156.286 122.9C156.286 121.73 156.521 120.872 156.884 120.17C157.404 119.13 158.288 118.272 159.563 117.596C160.837 116.921 162.526 116.531 164.191 116.531C166.427 116.531 168.533 117.233 169.833 118.273C170.483 118.793 170.976 119.391 171.314 120.093C171.653 120.821 171.886 121.678 171.886 122.901V136.889H182.286V133.301C182.286 132.235 182.494 131.506 182.858 130.831C183.378 129.843 184.288 128.959 185.64 128.283C186.992 127.606 188.734 127.191 190.45 127.217C192.66 127.217 194.74 127.893 195.935 128.881C196.559 129.376 197.001 129.921 197.339 130.596C197.651 131.273 197.884 132.104 197.884 133.326V133.404L197.885 133.405Z" fill="black"/>
</svg>

<svg width="260" height="260" fill="none" xmlns="http://www.w3.org/2000/svg"><path d="M208.26 132.548c-.078-2.365-.598-4.601-1.56-6.578-1.56-3.25-4.186-5.642-7.072-7.098-2.885-1.482-6.032-2.105-9.178-2.132-2.964 0-5.928.625-8.684 1.872-.26-1.092-.623-2.158-1.118-3.12-1.585-3.302-4.238-5.72-7.15-7.228s-6.136-2.21-9.308-2.21c-2.886 0-5.798.624-8.502 1.845-.26-.988-.598-1.975-1.04-2.86-1.612-3.302-4.264-5.745-7.175-7.254-2.939-1.533-6.162-2.235-9.387-2.235-2.625 0-5.303.495-7.8 1.508V37.05c0-2.678-.572-5.2-1.638-7.383-1.612-3.302-4.264-5.746-7.176-7.28-2.939-1.535-6.162-2.236-9.387-2.236-4.263 0-8.632 1.248-12.194 4.056a15.836 15.836 0 0 0-4.369 5.435c-1.066 2.185-1.638 4.732-1.638 7.385v85.8h-18.98l-23.192 52.182 33.827 64.843h91.545c3.042 0 5.824-.39 8.347-1.325 1.898-.702 3.64-1.717 5.096-3.017 2.21-1.95 3.744-4.394 4.836-6.968 1.092-2.6 1.82-5.408 2.444-8.475.858-4.29 1.898-10.816 3.016-18.512 1.664-11.518 3.459-25.61 4.889-38.142.701-6.265 1.325-12.142 1.794-17.133.442-4.992.755-9.074.806-11.909-.026-.468-.026-1.534-.052-1.82v-.003Zm-10.375.857v.729c-.078 3.145-.545 9.126-1.274 16.353-1.092 10.894-2.757 24.779-4.446 37.466-1.69 12.661-3.405 24.18-4.602 30.081-.468 2.392-.988 4.369-1.585 5.902-.442 1.144-.91 2.028-1.378 2.678-.728.989-1.378 1.509-2.418 2.002-1.066.468-2.679.832-5.097.832H91.832l-28.575-54.782 18.408-41.418h12.22v41.6h10.4v-137.8c0-1.222.235-2.106.598-2.834.52-1.092 1.379-1.925 2.652-2.6 1.248-.65 2.886-1.066 4.55-1.04 2.236 0 4.368.701 5.694 1.794.675.545 1.17 1.145 1.508 1.872.365.728.598 1.612.598 2.834v88.4h10.4v-13c0-1.221.235-2.105.598-2.833.52-1.092 1.379-1.924 2.652-2.6 1.248-.65 2.886-1.065 4.55-1.04 2.237 0 4.368.702 5.695 1.793.676.546 1.17 1.144 1.508 1.872.364.728.598 1.612.598 2.834v19.032h10.4V122.9c0-1.17.235-2.028.598-2.73.52-1.04 1.404-1.898 2.679-2.574 1.274-.675 2.963-1.065 4.628-1.065 2.236 0 4.342.702 5.642 1.742.65.52 1.143 1.118 1.481 1.82.339.728.572 1.585.572 2.808v13.988h10.4v-3.588c0-1.066.208-1.795.572-2.47.52-.988 1.43-1.872 2.782-2.548 1.352-.677 3.094-1.092 4.81-1.066 2.21 0 4.29.676 5.485 1.664a4.945 4.945 0 0 1 1.404 1.715c.312.677.545 1.508.545 2.73v.078l.001.001Z" fill="#000"/></svg>
